X:051
T: Planxty Connor
N: O'Farrell's Pocket Companion v.1 (Sky ed. p.40)
N: "Irish"
M: 6/8
L: 1/8
R: jig
Q: 320
K: G
D|GAG FED|E2F G2A|B2G c2A|B2G c2A|
Bcd E2E|ABG FED|EFE AGF| G3 G2 :|
P:2
c|B2d def|g3 g3|BcB Bcd|e2e efg|
dBG c2A |Bcd D2D|EFE AGE|G3 G2:|
